X: 4971
T: Brenda Stubbert's
R: reel
M: 4/4
K: Adorian
B|:A/A/A BA GAB2|A/A/A Bd eddB|G2 BA BGGB|c2 BA BGGB|
A/A/A BA GAB2|A/A/A (Bd) edda|gedB GABd|{ea}e2 dB eAAG:|
|:A/A/A a2 A/A/A g2|Aage aged|G2 BA BGGB|c2 BA BGGB|
[1 A/A/A a2 A/A/A g2|Aage agea|gedB GABd|{ea}e2dB eAAG:|
[2 A/A/A BA GAB2|A/A/A Bd edda|gedB GABd|{ea}e2dB eAA||

